X:1
T:Title
%%score { 1 | ( 2 3 ) }
L:1/8
Q:1/4=100
M:2/4
K:D
V:1 treble nm="Grand Piano"
V:2 bass 
V:3 bass 
V:1
 [DF][FA] [FA][FA] | [GB][FA] [FA]2 | [EGc][CEG] [CEG]2 | [GB][FA] [FA]2 | [DF][FA] [FA][FA] | %5
w: William~J.~Kirkpatrick * * *|||||
 [GB][FA] [FA]2 | [Ec]2 [DB]2 | [A,CA]4 | [EG]>F EG | [DF]B A2 | [EG]>[DF] [CE][EG] | %11
w: ||||||
 [DF][GB] [FA]2 | [Fd][Fd] cc | BB e2 | d2 [Ec]2 | [Fd]4 |] %16
w: |||||
V:2
 [D,A,][D,D] [D,D][D,D] | [D,D][D,D] [D,D]2 | A,,A,, A,,2 | [D,D][D,D] [D,D]2 | %4
 [D,A,][D,D] [D,D][D,D] | [D,D][D,D] [D,D]2 | [E,A,]2 [E,^G,]2 | A,,4 | z z/ D/ CE | %9
 z[K:treble] G F2 | [A,,A,]>[A,,A,] [A,,A,][A,,A,] | [D,A,][D,D] [D,D]2 | %12
 [D,A,][D,A,] [F,A,F][F,A,E] | [G,B,D][G,DG] [G,B,G]2 | [A,F]2[K:bass] [A,,A,]2 | [D,A,]4 |] %16
V:3
 x4 | x4 | x4 | x4 | x4 | x4 | x4 | x4 | A,,4 | D,4[K:treble] | x4 | x4 | x4 | x4 | x2[K:bass] x2 | %15
 x4 |] %16

